dist/intermediate-svg/car.svg

<?xml version="1.0" encoding="utf-8"?><svg width="12" height="12" fill="none" xmlns="http://www.w3.org/2000/svg" viewBox="0 0 12 12"><path d="M11.6 4.7l-.75-3.25C10.65.65 9.85 0 9 0H3c-.85 0-1.65.65-1.85 1.45L.4 4.7c-.25.2-.4.5-.4.8V11c0 .3.2.5.5.5h1c.3 0 .5-.2.5-.5V9.5h8V11c0 .3.2.5.5.5h1c.3 0 .5-.2.5-.5V5.5c0-.35-.15-.65-.4-.8zm-9.45-3c.1-.35.5-.7.85-.7h6c.35 0 .8.35.85.7L10.4 4H1.6l.55-2.3zM3 6.25c0 .15-.1.25-.25.25h-1.5C1.1 6.5 1 6.4 1 6.25v-.5c0-.15.1-.25.25-.25h1.5c.15 0 .25.1.25.25v.5zm8 0c0 .15-.1.25-.25.25h-1.5C9.1 6.5 9 6.4 9 6.25v-.5c0-.15.1-.25.25-.25h1.5c.15 0 .25.1.25.25v.5z" fill="#0094FF"/></svg>

<?xml version="1.0" encoding="utf-8"?><svg width="12" height="12" fill="none" xmlns="http://www.w3.org/2000/svg" viewBox="0 0 12 12"><path d="M11.6 4.7L10.85 1.45C10.65 0.650001 9.85 0 9 0H3C2.15 0 1.34999 0.650001 1.14999 1.45L0.399994 4.7C0.149994 4.9 0 5.2 0 5.5V11C0 11.3 0.2 11.5 0.5 11.5H1.5C1.8 11.5 2 11.3 2 11V9.5H10V11C10 11.3 10.2 11.5 10.5 11.5H11.5C11.8 11.5 12 11.3 12 11V5.5C12 5.15 11.85 4.85 11.6 4.7ZM2.14999 1.7C2.24999 1.35 2.65 1 3 1H9C9.35 1 9.80001 1.35 9.85001 1.7L10.4 4H1.60001L2.14999 1.7ZM3 6.25C3 6.4 2.9 6.5 2.75 6.5H1.25C1.1 6.5 1 6.4 1 6.25V5.75C1 5.6 1.1 5.5 1.25 5.5H2.75C2.9 5.5 3 5.6 3 5.75V6.25ZM11 6.25C11 6.4 10.9 6.5 10.75 6.5H9.25C9.1 6.5 9 6.4 9 6.25V5.75C9 5.6 9.1 5.5 9.25 5.5H10.75C10.9 5.5 11 5.6 11 5.75V6.25Z" fill="#0094FF"/></svg>
